!!!SOCIAL_FUNCTION:	songs of the horse society (dream societies)
!!!PDT:	1918

Specific Region: Dakotas, Minnesota, Montana, Nebraska
!!!REG: Dakotas and Montana
!!!LING_GROUP: Siouan
!!!LANG: Tone
!!!OTL@ENG: Chasing, They Walked
!!!ONM: No. 112
**kern
*Imale
*clefF4
*k[b-e-a-]
*M2/4
*>[A,A]
*>norep[A]
*>A
=1!|:
*MM116
4g
8.g
16f
=2
16f
8.e-
4e-
=3
4f
8.f
16f
=4
16f
8.e-
4e-
=5
(4.e-
16f
16e-)
=6||
*M3/4
8.c)
16c
8.c
16c
4c
=7
16f
8.e-
(16e-
8.c)
4B-
=8||
*M2/4
(8.B-
16F)
8.F
16F
=9
16F
8.E-
4E-
=10
4F
8.F
16F
=11
8.F
16E-
8.E-
16E-
=12
2E-
=13
2E-
==:|!
*-
!!!CNT: Native American -- Sioux
!!!MRD: 1911/07//-1914///
!!!OCL: Frances Densmore
!!!YOR1: Teton Sioux Music, Bulletin 61,
!!!YOR2: Bureau of American Ethnology, Smithsonian Institution
!!!PPR: Government Printing Office
!!!PPP: Washington, D.C.
!!!PDT: 1918///
!!!ENC: Craig Stuart Sapp
!!!END: 2002/03/25/
!!!EEV: 2002/03/31/
!!!AGN: Society Song/Song of the Horse Society
!!!MPN@@SIO: Shiya'ka
!!!MPN@ENG: Teal Duck
!!!TXO: Teton Sioux
!!!MLC: Standing Rock Reservation, South Dakota, United States of America
!!!ARL: 45.9/-100.7#
!!!catalog: Catalogue No. 470
!!!PPG: 303
!!!EFL: 112/245
!!!VTS: 107516356
